assets/icons/functional/math&finance/number-square-two.svg

<svg width="32" height="32" viewBox="0 0 32 32" fill="none" xmlns="http://www.w3.org/2000/svg"><g id="Icon-NumberSquareTwo"><g clip-path="url(#clip0_12_4750)"><g id="size=md (32px)"><g id="NumberSquareTwo"><path id="Vector" d="M26 5H6C5.44772 5 5 5.44772 5 6V26C5 26.5523 5.44772 27 6 27H26C26.5523 27 27 26.5523 27 26V6C27 5.44772 26.5523 5 26 5Z" stroke="#101828" stroke-width="2" stroke-linecap="round" stroke-linejoin="round"/><path id="Vector_2" d="M13.2375 11.8375C13.5071 11.2008 13.9884 10.6768 14.5998 10.3541C15.2113 10.0314 15.9155 9.92985 16.5933 10.0666C17.271 10.2033 17.8807 10.5699 18.3193 11.1045C18.7578 11.639 18.9983 12.3086 19 13C19.0027 13.5973 18.824 14.1814 18.4875 14.675V14.675L13 22H19" stroke="#101828" stroke-width="2" stroke-linecap="round" stroke-linejoin="round"/></g></g></g></g><defs><clipPath id="clip0_12_4750"><rect width="32" height="32" rx="5" fill="white"/></clipPath></defs></svg>

<svg xmlns="http://www.w3.org/2000/svg" width="32" height="32" fill="none"><g clip-path="url(#a)" stroke="#101828" stroke-linecap="round" stroke-linejoin="round" stroke-width="2"><path d="M26 5H6a1 1 0 0 0-1 1v20a1 1 0 0 0 1 1h20a1 1 0 0 0 1-1V6a1 1 0 0 0-1-1Z"/><path d="M13.238 11.838A3 3 0 0 1 19 13a2.95 2.95 0 0 1-.512 1.675v0L13 22h6"/></g><defs><clipPath id="a"><rect width="32" height="32" fill="#fff" rx="5"/></clipPath></defs></svg>
